X: 145
T: Açmam Açamam Söyleyemem
C: Nasib´in Mehmet Yürü
O: Turkey
F: http://compmusic.upf.edu/node/140
N: huzzam--sarki--senginsemai--acmam_acamam--nasibin_mehmet_yuru
N: makam= huzzam
N: form= sarki
N: usul= senginsemai = 6/4
M: 6/4
L: 1/16
K: C _1/4B _3/4e ^3/4f 
Q: 1/4=66
%%MIDI tuningsystem comma53
g4 f3/2e/d2 e2f2 g3/2f/eg f8  | e2f2 g2a3/2g/ f2g3/2f/ e2f3/2e/ d8  | 
w:  ARANAĞME  |   | 
d2f4ed d2g4fe d3/2c/de fga2  | g3/2f/eg f3/2e/df e3/2d/ce dccB B8  | 
w:   |   | 
g4 f3/2e/d2 e2f2 g3/2f/eg f8  | e2f2 g2a3/2g/ f2g3/2f/ e2f3/2e/ d8  | 
w:  ARANAĞME  |   | 
d2f4ed d2g4fe d3/2c/de fga2  | g3/2f/eg f3/2e/df e3/2d/ce dccB B8  | 
w:   |   | 
g4 g2f/e/f a2gf feed d8  | g2fe d2c2 defg fedf e6d2  | 
w:  Aç mam  *  *  *  a *  *  ça *  *  *  mam   |  söy *  *  *  *  le *  *  *  ye *  *  *  mem   | 
c2d6 e2dc f2ed g4 feed  | c2g4gf f2e/d/e (3gfeed d8  | 
w:  çün *  ki  *  *  de *  *  rin   |  de rin *  *  *  *  *  *  *  *  *  *  *  de    | 
fgg/f/e fga_b aggf feed d3c d/c/B/^A/B2  | 
w:  SAZ  | 
g4 g2f/e/f a2gf feed d8  | g2fe d2c2 defg fedf e6d2  | 
w:  Aç mam  *  *  *  a *  *  ça *  *  *  mam   |  söy *  *  *  *  le *  *  *  ye *  *  *  mem   | 
c2d6 e2dc f2ed g4 feed  | c2g4gf f2e/d/e (3gfeed d8  | 
w:  çün *  ki  *  *  de *  *  rin   |  de rin *  *  *  *  *  *  *  *  *  *  *  de    | 
fgg/f/e fga_b aggf feed d3c d/e/f/g/a2  | 
w:  SAZ  | 
a3g g3/2f/e/d/e fga_b agfe d4 g{a}g/f/g2  | \
w:  Bir  *  ya *  *  *  *  re *  *  *  si  *  *  *  var   | 
d2g2 f2=e2 d3c (3BAB(3cBA G8  | 
w:  ki  *  *  *  ka *  nı *  *  *  *  *  yor   | 
d2dc B^AB2 g3f e2g2 f2e2 d2c2  | =f3_1/4e e3d d3c (3edccB B8  | 
w:  kalb_ *  *  *  *  *  ü *  ze *  rin   |  kalb_ *  ü *  ze *  rin *  *  *  *  de    | 
fgg/f/e fga_b aggf feed d3c d/e/f/g/a2  | 
w:  SAZ  | 
a3g g3/2f/e/d/e fga_b agfe d4 g{a}g/f/g2  | \
w:  Bir  *  ya *  *  *  *  re *  *  *  si  *  *  *  var   | 
d2g2 f2=e2 d3c (3BAB(3cBA G8  | 
w:  ki  *  *  *  ka *  nı *  *  *  *  *  yor   | 
d2dc B^AB2 g3f e2g2 f2e2 d2c2  | =f3_1/4e e3d d3c (3edccB B8  | 
w:  kalb_ *  *  *  *  *  ü *  ze *  rin   |  kalb_ *  ü *  ze *  rin *  *  *  *  de    | 
B/c/B/^A/Bc d/e/d/c/de f/g/f/^e/fg agfe f8  | 
w:  SAZ  | 
fgf^e f4 f4 g2^a2 b6ag  | f3a g3f e3/2d/ef gfed d8  | 
w:  Bil *  *  *  lâh  bu  a *  cı   |  dur *  *  *  du *  *  *  ra *  *  *  cak   | 
f2g6 f2ga g2fe d2ef fed2  | c2g4gf f2e/d/e (3gfeed d8  | 
w:  kal *  bi  *  *  ye *  *  rin   |  ye rin *  *  *  *  *  *  *  *  *  *  *  de    | 
fgg/f/e fga_b aggf feed d3c d/e/f/g/a2  | 
w:  SAZ  | 
a3g g3/2f/e/d/e fga_b agfe d4 g{a}g/f/g2  | \
w:  Bir  *  ya *  *  *  *  re *  *  *  si  *  *  *  var   | 
d2g2 f2=e2 d3c (3BAB(3cBA G8  | 
w:  ki  *  *  *  ka *  nı *  *  *  *  *  yor   | 
d2dc B^AB2 g3f e2g2 f2e2 d2c2  | =f3_1/4e e3d d3c (3edccB B8  | 
w:  kalb_ *  *  *  *  *  ü *  ze *  rin   |  kalb_ *  ü *  ze *  rin *  *  *  *  de    | 
|


